X:2205 
T:Lady I have gold and silver
C:Traditional
O:Isle of Man
Z:Clague collection
B:Kiaull Vannin #205 
L:1/4
M:2/4 
K:G 
G G|G G|G e|d B|G G|G G|F G|A2 |g g|g d|e d|c B|c e|d c|A F|G2||

